Newaita-dark/actions/24/zoom-out.svg

<svg height="24" viewBox="0 0 24 24" width="24" xmlns="http://www.w3.org/2000/svg"><g fill="#e0e0e0"><path d="m8.929688 11.101562h5.953124c.277344 0 .496094.222657.496094.496094v.992188c0 .273437-.21875.496094-.496094.496094h-5.953124c-.273438 0-.496094-.222657-.496094-.496094v-.992188c0-.273437.222656-.496094.496094-.496094zm0 0"/><path d="m3.96875 2.171875c-1.097656 0-1.984375.886719-1.984375 1.984375v3.96875h1.984375v-2.976562c0-.550782.441406-.992188.992188-.992188h2.976562v-1.984375zm11.90625 0v1.984375h2.976562c.550782 0 .992188.441406.992188.992188v2.976562h1.988281v-3.96875c0-1.097656-.886719-1.984375-1.988281-1.984375zm-13.890625 13.890625v3.96875c0 1.101562.886719 1.988281 1.984375 1.988281h3.96875v-1.988281h-2.976562c-.550782 0-.992188-.441406-.992188-.992188v-2.976562zm17.859375 0v2.976562c0 .550782-.441406.992188-.992188.992188h-2.976562v1.988281h3.96875c1.101562 0 1.988281-.886719 1.988281-1.988281v-3.96875zm0 0"/></g></svg>

<svg xmlns="http://www.w3.org/2000/svg" xmlns:xlink="http://www.w3.org/1999/xlink" width="24px" height="24px" viewBox="0 0 24 24" version="1.1">
<g id="surface1">
     <defs>
  <style id="current-color-scheme" type="text/css">
   .ColorScheme-Text { color:#eeeeee; } .ColorScheme-Highlight { color:#424242; }
  </style>
 </defs>
<path style="fill:currentColor" class="ColorScheme-Text" d="M 8.929688 11.101562 L 14.882812 11.101562 C 15.160156 11.101562 15.378906 11.324219 15.378906 11.597656 L 15.378906 12.589844 C 15.378906 12.863281 15.160156 13.085938 14.882812 13.085938 L 8.929688 13.085938 C 8.65625 13.085938 8.433594 12.863281 8.433594 12.589844 L 8.433594 11.597656 C 8.433594 11.324219 8.65625 11.101562 8.929688 11.101562 Z M 8.929688 11.101562 "/>
     <defs>
  <style id="current-color-scheme" type="text/css">
   .ColorScheme-Text { color:#eeeeee; } .ColorScheme-Highlight { color:#424242; }
  </style>
 </defs>
<path style="fill:currentColor" class="ColorScheme-Text" d="M 3.96875 2.171875 C 2.871094 2.171875 1.984375 3.058594 1.984375 4.15625 L 1.984375 8.125 L 3.96875 8.125 L 3.96875 5.148438 C 3.96875 4.597656 4.410156 4.15625 4.960938 4.15625 L 7.9375 4.15625 L 7.9375 2.171875 Z M 15.875 2.171875 L 15.875 4.15625 L 18.851562 4.15625 C 19.402344 4.15625 19.84375 4.597656 19.84375 5.148438 L 19.84375 8.125 L 21.832031 8.125 L 21.832031 4.15625 C 21.832031 3.058594 20.945312 2.171875 19.84375 2.171875 Z M 1.984375 16.0625 L 1.984375 20.03125 C 1.984375 21.132812 2.871094 22.019531 3.96875 22.019531 L 7.9375 22.019531 L 7.9375 20.03125 L 4.960938 20.03125 C 4.410156 20.03125 3.96875 19.589844 3.96875 19.039062 L 3.96875 16.0625 Z M 19.84375 16.0625 L 19.84375 19.039062 C 19.84375 19.589844 19.402344 20.03125 18.851562 20.03125 L 15.875 20.03125 L 15.875 22.019531 L 19.84375 22.019531 C 20.945312 22.019531 21.832031 21.132812 21.832031 20.03125 L 21.832031 16.0625 Z M 19.84375 16.0625 "/>
</g>
</svg>
